app/images/timeline.svg

<?xml version="1.0" encoding="UTF-8" standalone="no"?>
<svg width="863px" height="63px" viewBox="0 0 863 63" version="1.1" xmlns="http://www.w3.org/2000/svg" xmlns:xlink="http://www.w3.org/1999/xlink" xmlns:sketch="http://www.bohemiancoding.com/sketch/ns">
    <!-- Generator: Sketch 3.2.2 (9983) - http://www.bohemiancoding.com/sketch -->
    <title>Group</title>
    <desc>Created with Sketch.</desc>
    <defs></defs>
    <g id="III-Игры-Дизайнеров" stroke="none" stroke-width="1" fill="none" fill-rule="evenodd" sketch:type="MSPage">
        <g id="О-чемпионате-(дизайн)" sketch:type="MSArtboardGroup" transform="translate(-479.000000, -1395.000000)">
            <g id="3_block" sketch:type="MSLayerGroup" transform="translate(0.000000, 1231.000000)">
                <g id="timeline" transform="translate(479.000000, 164.000000)" sketch:type="MSShapeGroup">
                    <g id="Group">
                        <path d="M33.5,35 L836.866333,35" id="Line" stroke="#000000" stroke-width="2" stroke-linecap="square"></path>
                        <g id="bg_white" fill="#FFFFFF">
                            <rect id="Rectangle-198" x="0" y="10" width="50" height="50"></rect>
                            <rect id="Rectangle-199" x="170" y="10" width="41" height="41"></rect>
                            <rect id="Rectangle-201" x="331" y="0" width="44" height="44"></rect>
                            <rect id="Rectangle-200" x="491" y="10" width="47" height="50"></rect>
                            <rect id="Rectangle-203" x="650" y="19" width="40" height="32"></rect>
                            <rect id="Rectangle-202" x="810" y="10" width="53" height="53"></rect>
                        </g>
                        <path d="M35.989,44.1243797 C35.989,41.8664658 33.802,40.7174027 31.672,39.7945331 C29.549,38.8756847 28.871,38.1016003 28.871,36.4428478 C28.871,35.4486016 29.519,35.7723096 29.803,33.9486872 C29.923,33.1926982 30.495,33.9366235 30.605,32.2105156 C30.605,31.5228873 30.292,31.3519856 30.292,31.3519856 C30.292,31.3519856 30.451,30.3336121 30.513,29.5494745 C30.577,28.7281407 30.115,26.9758949 28.212,26.438057 C27.88,26.0952481 27.655,25.5513784 28.679,25.0065033 C26.439,24.9019516 25.918,26.0801686 24.725,26.9467411 C23.71,27.7067513 23.436,28.9101008 23.485,29.5504798 C23.55,30.3346174 23.708,31.3529909 23.708,31.3529909 C23.708,31.3529909 23.394,31.5238926 23.394,32.211521 C23.504,33.9386342 24.078,33.1937035 24.197,33.9496925 C24.481,35.7733149 25.13,35.4496069 25.13,36.4438531 C25.13,38.1026056 24.918,38.6655761 22.794,39.5844244 C20.663,40.5062887 20,41.9840864 20.011,44.1243797 C20.014,44.7647587 20,45 20,45 L36,45 C36,45 35.989,44.7647587 35.989,44.1243797 L35.989,44.1243797 Z M38.528,38.3298044 C37.393,37.8703802 36.923,37.3224892 36.923,36.2528452 C36.923,35.608445 37.341,35.8185536 37.525,34.641342 C37.602,34.1547746 37.972,34.6332996 38.043,33.5204275 C38.043,33.0770882 37.841,32.9665047 37.841,32.9665047 C37.841,32.9665047 37.944,32.3070249 37.984,31.8013567 C38.034,31.1710308 37.62,29.5424374 35.716,29.5424374 C33.813,29.5424374 33.398,31.1710308 33.447,31.8013567 C33.489,32.3060196 33.591,32.9665047 33.591,32.9665047 C33.591,32.9665047 33.389,33.0760829 33.389,33.5204275 C33.46,34.6332996 33.83,34.1547746 33.907,34.641342 C34.091,35.8195589 34.509,35.6094503 34.509,36.2528452 C34.509,37.3224892 34.071,37.8231309 32.7,38.4162606 C32.631,38.4454144 32.58,38.4846213 32.517,38.5188016 C34.157,39.2345785 36.743,40.4700977 37.355,42.9893909 L40,42.9893909 L40,40.659095 C40,39.6537905 39.727,38.8153665 38.528,38.3298044 L38.528,38.3298044 Z" id="Shape" fill="#000000"></path>
                        <path d="M185.317216,39.8848368 C185.317216,39.8848368 190.12312,39.2251822 192.174677,37.1746771 C194.226234,35.1241719 194.884837,30.3172155 194.884837,30.3172155 C194.884837,30.3172155 190.07788,30.9768701 188.027375,33.0273752 C185.97687,35.0778804 185.317216,39.8848368 185.317216,39.8848368 L185.317216,39.8848368 Z M189.065779,34.0636746 C189.926381,33.2030727 191.574991,32.5907618 192.988987,32.2099086 C192.609186,33.6218008 191.994771,35.281984 191.137326,36.1362735 C190.566046,36.7096574 189.637059,36.7096574 189.065779,36.1362735 C188.492395,35.5649937 188.492395,34.6370586 189.065779,34.0636746 L189.065779,34.0636746 Z M190.101026,25 C184.521843,25 180,29.5218426 180,35.0999741 C180,40.6791577 184.521843,45.2010002 190.101026,45.2010002 C195.678106,45.2010002 200.201,40.6791577 200.201,35.0999741 C200.201,29.5218426 195.678106,25 190.101026,25 L190.101026,25 Z M190.099974,43.0957869 C185.684392,43.0957869 182.104161,39.5166086 182.104161,35.0999741 C182.104161,30.6843917 185.68334,27.1041613 190.099974,27.1041613 C194.515556,27.1041613 198.096839,30.6833396 198.096839,35.0999741 C198.096839,39.5155565 194.515556,43.0957869 190.099974,43.0957869 L190.099974,43.0957869 Z" id="Shape" fill="#000000"></path>
                        <path d="M351.8,35.5882353 L354.2,35.5882353 L354.2,37.9411765 L365,37.9411765 C365,37.9411765 364.8212,32.6952941 364.76,31.0541176 C364.7,29.4941176 364.13,28.5294118 362.36,28.5294118 L358.5104,28.5294118 C357.914,27.4258824 357.272,26.2411765 357.074,25.8752941 C356.6768,25.1423529 356.5412,25 355.6592,25 L350.3396,25 C349.4576,25 349.3232,25.1423529 348.9248,25.8752941 C348.7268,26.2411765 348.0848,27.4258824 347.4896,28.5294118 L343.6388,28.5294118 C341.8676,28.5294118 341.3048,29.4941176 341.2388,31.0541176 C341.174,32.6152941 341,37.9411765 341,37.9411765 L351.8,37.9411765 L351.8,35.5882353 L351.8,35.5882353 Z M350.1788,27.2541176 C350.4548,26.7458824 350.5484,26.6470588 351.1592,26.6470588 L354.8396,26.6470588 C355.4504,26.6470588 355.5452,26.7458824 355.8188,27.2541176 C355.922,27.4423529 356.2004,27.96 356.5088,28.5294118 L349.4888,28.5294118 C349.7972,27.96 350.0756,27.4423529 350.1788,27.2541176 L350.1788,27.2541176 Z M354.2,41.4705882 L351.8,41.4705882 L351.8,39.1176471 L341.6,39.1176471 C341.6,39.1176471 341.7488,41.2317647 341.8388,43.0258824 C341.876,43.7705882 342.1004,45 343.9988,45 L362,45 C363.8984,45 364.118,43.7682353 364.16,43.0258824 C364.2644,41.1811765 364.4,39.1176471 364.4,39.1176471 L354.2,39.1176471 L354.2,41.4705882 L354.2,41.4705882 Z" id="Shape" fill="#000000"></path>
                        <path d="M505.389531,38.0739058 C506.006165,40.5710082 506.790248,41.6634074 509.405627,42.8076358 C512.022335,43.9505352 513.264906,45.1997509 514.290857,45.1997509 C515.31548,45.1997509 516.480972,44.1073517 519.096351,42.9617943 C521.713059,41.8175659 521.01403,41.4693803 521.630664,38.9722779 L514.290857,42.5418452 L505.389531,38.0739058 L505.389531,38.0739058 Z M526.930528,31.559379 L515.866995,25.3638008 C515.000518,24.8787331 513.581197,24.8787331 512.714719,25.3638008 L501.649858,31.559379 C500.783381,32.0444468 500.783381,32.8391606 501.649858,33.3242283 L512.71339,39.5198065 C513.579868,40.0048743 514.999189,40.0048743 515.865666,39.5198065 L523.018091,35.5143426 L515.262322,33.6976641 C514.963307,33.7707565 514.635056,33.811954 514.290857,33.811954 C512.892799,33.811954 511.760531,33.1395039 511.760531,32.3089084 C511.760531,31.4756549 512.894128,30.8032048 514.290857,30.8032048 C515.375283,30.8032048 516.297576,31.2111933 516.656393,31.7786562 L524.87198,34.4751015 L526.930528,33.3228994 C527.795676,32.8391606 527.795676,32.0444468 526.930528,31.559379 L526.930528,31.559379 Z M523.549672,43.2993483 C523.46329,43.8109952 525.254718,44.6522223 525.424824,43.1571504 C526.194288,36.4167016 524.87198,34.4777594 524.87198,34.4777594 L523.018091,35.5156716 C523.018091,35.5143426 524.590242,37.0107435 523.549672,43.2993483 L523.549672,43.2993483 Z" id="Shape" fill="#000000"></path>
                        <path d="M660.245863,35.9264503 C660.005478,36.0900817 659.92825,36.4350343 660.072916,36.6893262 L661.482592,39.1703314 C661.627257,39.4246234 661.95901,39.529657 662.218973,39.4002998 L666.524139,37.2808315 L666.524139,44.8919008 L668.699564,44.8919008 L668.699564,36.2083827 L673.127642,34.0269998 L670.277835,29.0074974 L660.245863,35.9264503 L660.245863,35.9264503 Z M678.986062,27.2429322 C677.766736,25.0980347 675.065946,24.3627992 672.953608,25.6021962 C671.96379,26.1826453 671.313338,27.1047301 670.994638,28.1329541 L674.23167,33.8335168 C675.266085,34.0679077 676.377727,33.9551347 677.369721,33.3746856 C679.482059,32.1352887 680.205388,29.3911466 678.986062,27.2429322 L678.986062,27.2429322 Z" id="Shape" fill="#000000"></path>
                        <path d="M831.311111,40.4706809 C831.311111,38.8147383 832.533333,37.8983207 834.526667,36.5425249 C836.964444,34.880876 840,32.8163687 840,27.9147329 C840,27.4730721 839.647778,27.1170045 839.212222,27.1170045 L835.401111,27.1170045 C834.863333,26.0944514 833.257778,25 830,25 C826.74,25 825.136667,26.0944514 824.597778,27.1170045 L820.785556,27.1170045 C820.351111,27.1170045 820,27.4742134 820,27.9147329 C820,32.8163687 823.033333,34.880876 825.473333,36.5413836 C827.466667,37.8971795 828.688889,38.8135971 828.688889,40.4695397 L828.688889,41.9657084 C826.595556,42.204228 825.056667,42.9996739 825.056667,43.9469051 C825.056667,45.0812999 827.27,46 830,46 C832.73,46 834.943333,45.0812999 834.943333,43.9469051 C834.943333,42.9996739 833.404444,42.204228 831.311111,41.9657084 L831.311111,40.4706809 L831.311111,40.4706809 Z M834.396667,34.7005598 C835.025556,33.3322102 835.525556,31.4754089 835.605556,28.7136025 L838.394444,28.7136025 C838.127778,31.796098 836.325556,33.3516113 834.396667,34.7005598 L834.396667,34.7005598 Z M830,26.3991631 C833.035556,26.3968806 834.221111,27.6716483 834.22,28.1441226 C834.22,28.6211619 833.035556,29.8936471 830,29.8959296 C826.964444,29.8947883 825.778889,28.6223031 825.778889,28.1452638 C825.777778,27.6727895 826.964444,26.3968806 830,26.3991631 L830,26.3991631 Z M821.605556,28.7136025 L824.393333,28.7136025 C824.474444,31.4754089 824.972222,33.3322102 825.603333,34.7005598 C823.674444,33.3516113 821.871111,31.796098 821.605556,28.7136025 L821.605556,28.7136025 Z" id="Shape" fill="#000000"></path>
                    </g>
                </g>
            </g>
        </g>
    </g>
</svg>

<svg width="863" height="63" viewBox="0 0 863 63" xmlns="http://www.w3.org/2000/svg" xmlns:sketch="http://www.bohemiancoding.com/sketch/ns"><title>Group</title><desc>Created with Sketch.</desc><g sketch:type="MSShapeGroup" fill="none"><path d="M33.5 35h803.366" stroke="#000" stroke-width="2" stroke-linecap="square"/><g fill="#fff"><path d="M0 10h50v50h-50z"/><path d="M170 10h41v41h-41z"/><path d="M331 0h44v44h-44z"/><path d="M491 10h47v50h-47z"/><path d="M650 19h40v32h-40z"/><path d="M810 10h53v53h-53z"/></g><path d="M195.989 44.124c0-2.258-2.187-3.407-4.317-4.33-2.123-.919-2.801-1.693-2.801-3.352 0-.994.648-.671.932-2.494.12-.756.692-.012.802-1.738 0-.688-.313-.859-.313-.859s.159-1.018.221-1.803c.064-.821-.398-2.574-2.301-3.111-.332-.343-.557-.887.467-1.432-2.24-.105-2.761 1.074-3.954 1.94-1.015.76-1.289 1.963-1.24 2.604.065.784.223 1.803.223 1.803s-.314.171-.314.859c.11 1.727.684.982.803 1.738.284 1.824.933 1.5.933 2.494 0 1.659-.212 2.222-2.336 3.141-2.131.922-2.794 2.4-2.783 4.54.003.64-.011.876-.011.876h16s-.011-.235-.011-.876zm2.539-5.795c-1.135-.459-1.605-1.007-1.605-2.077 0-.644.418-.434.602-1.612.077-.487.447-.008.518-1.121 0-.443-.202-.554-.202-.554s.103-.659.143-1.165c.05-.63-.364-2.259-2.268-2.259-1.903 0-2.318 1.629-2.269 2.259.042.505.144 1.165.144 1.165s-.202.11-.202.554c.071 1.113.441.634.518 1.121.184 1.178.602.968.602 1.612 0 1.07-.438 1.57-1.809 2.163l-.183.103c1.64.716 4.226 1.951 4.838 4.471h2.645v-2.33c0-1.005-.273-1.844-1.472-2.329zM25.317 39.885s4.806-.66 6.857-2.71c2.052-2.051 2.71-6.857 2.71-6.857s-4.807.66-6.857 2.71c-2.051 2.051-2.71 6.857-2.71 6.857zm3.749-5.821c.861-.861 2.509-1.473 3.923-1.854-.38 1.412-.994 3.072-1.852 3.926-.571.573-1.5.573-2.072 0-.573-.571-.573-1.499 0-2.073zm1.035-9.064c-5.579 0-10.101 4.522-10.101 10.1 0 5.579 4.522 10.101 10.101 10.101 5.577 0 10.1-4.522 10.1-10.101 0-5.578-4.523-10.1-10.1-10.1zm-.001 18.096c-4.416 0-7.996-3.579-7.996-7.996 0-4.416 3.579-7.996 7.996-7.996 4.416 0 7.997 3.579 7.997 7.996 0 4.416-3.581 7.996-7.997 7.996zM351.8 35.588h2.4v2.353h10.8s-.179-5.246-.24-6.887c-.06-1.56-.63-2.525-2.4-2.525h-3.85l-1.436-2.654c-.397-.733-.533-.875-1.415-.875h-5.32c-.882 0-1.016.142-1.415.875l-1.435 2.654h-3.851c-1.771 0-2.334.965-2.4 2.525-.065 1.561-.239 6.887-.239 6.887h10.8v-2.353zm-1.621-8.334c.276-.508.37-.607.98-.607h3.68c.611 0 .706.099.979.607l.69 1.275h-7.02l.69-1.275zm4.021 14.216h-2.4v-2.353h-10.2s.149 2.114.239 3.908c.037.745.262 1.974 2.16 1.974h18.001c1.898 0 2.118-1.232 2.16-1.974.104-1.845.24-3.908.24-3.908h-10.2v2.353zM505.39 38.074c.617 2.497 1.401 3.59 4.016 4.734 2.617 1.143 3.859 2.392 4.885 2.392 1.025 0 2.19-1.092 4.805-2.238 2.617-1.144 1.918-1.492 2.534-3.99l-7.34 3.57-8.901-4.468zm21.541-6.515l-11.064-6.196c-.866-.485-2.286-.485-3.152 0l-11.065 6.196c-.866.485-.866 1.28 0 1.765l11.064 6.196c.866.485 2.286.485 3.152 0l7.152-4.005-7.756-1.817c-.299.073-.627.114-.971.114-1.398 0-2.53-.672-2.53-1.503 0-.833 1.134-1.506 2.53-1.506 1.084 0 2.007.408 2.366.975l8.216 2.696 2.059-1.152c.865-.484.865-1.278 0-1.764zm-3.381 11.74c-.086.512 1.705 1.353 1.875-.142.769-6.74-.553-8.679-.553-8.679l-1.854 1.038c0-.001 1.572 1.495.532 7.784zM660.246 35.926c-.24.164-.318.509-.173.763l1.41 2.481c.145.254.476.359.736.23l4.305-2.119v7.611h2.175v-8.684l4.428-2.181-2.85-5.02-10.032 6.919zm18.74-8.684c-1.219-2.145-3.92-2.88-6.032-1.641-.99.58-1.64 1.503-1.959 2.531l3.237 5.701c1.034.234 2.146.122 3.138-.459 2.112-1.239 2.836-3.984 1.616-6.132zM831.311 40.471c0-1.656 1.222-2.572 3.216-3.928 2.438-1.662 5.473-3.726 5.473-8.628 0-.442-.352-.798-.788-.798h-3.811c-.538-1.023-2.143-2.117-5.401-2.117-3.26 0-4.863 1.094-5.402 2.117h-3.812c-.434 0-.786.357-.786.798 0 4.902 3.033 6.966 5.473 8.627 1.993 1.356 3.216 2.272 3.216 3.928v1.496c-2.093.239-3.632 1.034-3.632 1.981 0 1.134 2.213 2.053 4.943 2.053 2.73 0 4.943-.919 4.943-2.053 0-.947-1.539-1.743-3.632-1.981v-1.495zm3.086-5.77c.629-1.368 1.129-3.225 1.209-5.987h2.789c-.267 3.082-2.069 4.638-3.998 5.987zm-4.397-8.301c3.036-.002 4.221 1.272 4.22 1.745 0 .477-1.184 1.75-4.22 1.752-3.036-.001-4.221-1.274-4.221-1.751-.001-.472 1.186-1.748 4.221-1.746zm-8.394 2.314h2.788c.081 2.762.579 4.619 1.21 5.987-1.929-1.349-3.732-2.904-3.998-5.987z" fill="#232323"/></g></svg>
